img/core-features-2.svg

<svg width="30" height="20" viewBox="0 0 30 20" fill="none" xmlns="http://www.w3.org/2000/svg">
<path fill-rule="evenodd" clip-rule="evenodd" d="M28.3891 6.22143C28.3936 6.30231 28.3877 6.38446 28.3675 6.46703L26.5607 13.7235C26.4695 14.0887 26.1432 14.3462 25.7681 14.3483L14.9274 14.4033C14.926 14.4033 14.9247 14.4033 14.9232 14.4033H4.08252C3.70534 14.4033 3.37673 14.1449 3.28569 13.7776L1.47889 6.49341C1.45802 6.40914 1.45207 6.32444 1.45732 6.24144C0.758345 6.02055 0.25 5.3638 0.25 4.59001C0.25 3.63449 1.02362 2.8577 1.97463 2.8577C2.92564 2.8577 3.69926 3.63449 3.69926 4.59001C3.69926 5.12757 3.45384 5.60854 3.0696 5.9269L5.33168 8.21508C5.90345 8.79349 6.69673 9.12548 7.50832 9.12548C8.46804 9.12548 9.38301 8.66752 9.95922 7.90095L13.6769 2.95475C13.3646 2.64149 13.1711 2.20862 13.1711 1.73108C13.1711 0.775965 13.9448 -0.0012207 14.8958 -0.0012207C15.8468 -0.0012207 16.6204 0.775965 16.6204 1.73108C16.6204 2.19417 16.4373 2.61425 16.1413 2.92538C16.1423 2.92666 16.1436 2.92795 16.1445 2.92921L19.8351 7.88905C20.4112 8.66284 21.3294 9.12548 22.2918 9.12548C23.1109 9.12548 23.8812 8.805 24.4603 8.22359L26.7366 5.93754C26.3443 5.6196 26.0923 5.1344 26.0923 4.59001C26.0923 3.63449 26.866 2.8577 27.817 2.8577C28.768 2.8577 29.5417 3.63449 29.5417 4.59001C29.5417 5.34294 29.0592 5.98393 28.3891 6.22143ZM26.3844 16.9868C26.3844 16.5318 26.0166 16.1624 25.5631 16.1624H4.3198C3.86624 16.1624 3.49849 16.5318 3.49849 16.9868V18.966C3.49849 19.4218 3.86624 19.7908 4.3198 19.7908H25.5631C26.0166 19.7908 26.3844 19.4218 26.3844 18.966V16.9868Z" fill="#FE5868"/>
</svg>

<svg width="30" height="20" fill="none" xmlns="http://www.w3.org/2000/svg"><path fill-rule="evenodd" clip-rule="evenodd" d="M28.39 6.221a.833.833 0 0 1-.023.246l-1.806 7.256a.823.823 0 0 1-.793.625l-10.84.055H4.082a.822.822 0 0 1-.797-.625L1.479 6.493a.827.827 0 0 1-.022-.252 1.733 1.733 0 0 1 .518-3.383 1.733 1.733 0 0 1 1.095 3.07l2.262 2.287a3.08 3.08 0 0 0 2.176.91A3.08 3.08 0 0 0 9.96 7.901l3.718-4.946a1.73 1.73 0 0 1 1.219-2.956 1.73 1.73 0 0 1 1.245 2.926l.004.004 3.69 4.96a3.078 3.078 0 0 0 2.457 1.236c.819 0 1.59-.32 2.168-.901l2.277-2.286a1.73 1.73 0 0 1 1.08-3.08 1.73 1.73 0 0 1 .572 3.363Zm-2.006 10.766a.823.823 0 0 0-.82-.825H4.32a.823.823 0 0 0-.822.825v1.979c0 .456.368.825.822.825h21.243a.823.823 0 0 0 .821-.825v-1.98Z" fill="#FE5868"/></svg>
